src/beethovenx/assets/images/beets-headline.svg

<svg width="148" height="67" viewBox="0 0 148 67" fill="none" xmlns="http://www.w3.org/2000/svg">
<path d="M20.24 48.768C20.24 50.028 21.212 51 22.472 51H31.904C37.52 51 41.228 48.588 41.228 44.088V44.016C41.228 40.596 39.176 38.904 36.224 37.896C38.096 36.924 39.824 35.304 39.824 32.28V32.208C39.824 30.516 39.248 29.148 38.132 28.032C36.692 26.592 34.424 25.8 31.544 25.8H22.472C21.212 25.8 20.24 26.772 20.24 28.032V48.768ZM24.596 36.42V29.724H30.968C33.812 29.724 35.396 30.948 35.396 32.928V33C35.396 35.304 33.488 36.42 30.644 36.42H24.596ZM24.596 47.076V40.164H31.616C35.108 40.164 36.8 41.424 36.8 43.548V43.62C36.8 45.888 34.964 47.076 31.94 47.076H24.596ZM46.6525 51H61.4845C62.5645 51 63.4645 50.136 63.4645 49.02C63.4645 47.94 62.5645 47.04 61.4845 47.04H48.8485V40.272H59.6845C60.7645 40.272 61.6645 39.408 61.6645 38.328C61.6645 37.212 60.7645 36.312 59.6845 36.312H48.8485V29.76H61.3045C62.3845 29.76 63.2845 28.896 63.2845 27.78C63.2845 26.7 62.3845 25.8 61.3045 25.8H46.6525C45.3925 25.8 44.4205 26.772 44.4205 28.032V48.768C44.4205 50.028 45.3925 51 46.6525 51ZM68.9697 51H83.8017C84.8817 51 85.7817 50.136 85.7817 49.02C85.7817 47.94 84.8817 47.04 83.8017 47.04H71.1657V40.272H82.0017C83.0817 40.272 83.9817 39.408 83.9817 38.328C83.9817 37.212 83.0817 36.312 82.0017 36.312H71.1657V29.76H83.6217C84.7017 29.76 85.6017 28.896 85.6017 27.78C85.6017 26.7 84.7017 25.8 83.6217 25.8H68.9697C67.7097 25.8 66.7377 26.772 66.7377 28.032V48.768C66.7377 50.028 67.7097 51 68.9697 51ZM95.2468 48.984C95.2468 50.208 96.2548 51.18 97.4788 51.18C98.7028 51.18 99.7108 50.208 99.7108 48.984V29.904H105.867C106.983 29.904 107.883 28.968 107.883 27.852C107.883 26.736 106.983 25.8 105.867 25.8H89.1268C87.9748 25.8 87.0748 26.736 87.0748 27.852C87.0748 28.968 87.9748 29.904 89.1268 29.904H95.2468V48.984ZM118.891 51.36C124.183 51.36 127.891 48.552 127.891 43.836V43.764C127.891 39.588 125.155 37.68 119.827 36.384C114.967 35.232 113.815 34.368 113.815 32.424V32.352C113.815 30.696 115.327 29.364 117.919 29.364C119.899 29.364 121.771 30.012 123.715 31.272C124.075 31.488 124.435 31.596 124.867 31.596C126.019 31.596 126.955 30.696 126.955 29.544C126.955 28.68 126.487 28.068 125.983 27.78C123.715 26.268 121.159 25.44 117.991 25.44C112.987 25.44 109.387 28.428 109.387 32.748V32.82C109.387 37.464 112.411 39.048 117.775 40.344C122.455 41.424 123.463 42.396 123.463 44.196V44.268C123.463 46.14 121.735 47.436 118.999 47.436C116.263 47.436 114.031 46.5 111.943 44.844C111.655 44.628 111.259 44.448 110.647 44.448C109.495 44.448 108.559 45.348 108.559 46.5C108.559 47.22 108.919 47.832 109.423 48.192C112.231 50.28 115.471 51.36 118.891 51.36Z" fill="black"/>
<path d="M20.24 43.768C20.24 45.028 21.212 46 22.472 46H31.904C37.52 46 41.228 43.588 41.228 39.088V39.016C41.228 35.596 39.176 33.904 36.224 32.896C38.096 31.924 39.824 30.304 39.824 27.28V27.208C39.824 25.516 39.248 24.148 38.132 23.032C36.692 21.592 34.424 20.8 31.544 20.8H22.472C21.212 20.8 20.24 21.772 20.24 23.032V43.768ZM24.596 31.42V24.724H30.968C33.812 24.724 35.396 25.948 35.396 27.928V28C35.396 30.304 33.488 31.42 30.644 31.42H24.596ZM24.596 42.076V35.164H31.616C35.108 35.164 36.8 36.424 36.8 38.548V38.62C36.8 40.888 34.964 42.076 31.94 42.076H24.596ZM46.6525 46H61.4845C62.5645 46 63.4645 45.136 63.4645 44.02C63.4645 42.94 62.5645 42.04 61.4845 42.04H48.8485V35.272H59.6845C60.7645 35.272 61.6645 34.408 61.6645 33.328C61.6645 32.212 60.7645 31.312 59.6845 31.312H48.8485V24.76H61.3045C62.3845 24.76 63.2845 23.896 63.2845 22.78C63.2845 21.7 62.3845 20.8 61.3045 20.8H46.6525C45.3925 20.8 44.4205 21.772 44.4205 23.032V43.768C44.4205 45.028 45.3925 46 46.6525 46ZM68.9697 46H83.8017C84.8817 46 85.7817 45.136 85.7817 44.02C85.7817 42.94 84.8817 42.04 83.8017 42.04H71.1657V35.272H82.0017C83.0817 35.272 83.9817 34.408 83.9817 33.328C83.9817 32.212 83.0817 31.312 82.0017 31.312H71.1657V24.76H83.6217C84.7017 24.76 85.6017 23.896 85.6017 22.78C85.6017 21.7 84.7017 20.8 83.6217 20.8H68.9697C67.7097 20.8 66.7377 21.772 66.7377 23.032V43.768C66.7377 45.028 67.7097 46 68.9697 46ZM95.2468 43.984C95.2468 45.208 96.2548 46.18 97.4788 46.18C98.7028 46.18 99.7108 45.208 99.7108 43.984V24.904H105.867C106.983 24.904 107.883 23.968 107.883 22.852C107.883 21.736 106.983 20.8 105.867 20.8H89.1268C87.9748 20.8 87.0748 21.736 87.0748 22.852C87.0748 23.968 87.9748 24.904 89.1268 24.904H95.2468V43.984ZM118.891 46.36C124.183 46.36 127.891 43.552 127.891 38.836V38.764C127.891 34.588 125.155 32.68 119.827 31.384C114.967 30.232 113.815 29.368 113.815 27.424V27.352C113.815 25.696 115.327 24.364 117.919 24.364C119.899 24.364 121.771 25.012 123.715 26.272C124.075 26.488 124.435 26.596 124.867 26.596C126.019 26.596 126.955 25.696 126.955 24.544C126.955 23.68 126.487 23.068 125.983 22.78C123.715 21.268 121.159 20.44 117.991 20.44C112.987 20.44 109.387 23.428 109.387 27.748V27.82C109.387 32.464 112.411 34.048 117.775 35.344C122.455 36.424 123.463 37.396 123.463 39.196V39.268C123.463 41.14 121.735 42.436 118.999 42.436C116.263 42.436 114.031 41.5 111.943 39.844C111.655 39.628 111.259 39.448 110.647 39.448C109.495 39.448 108.559 40.348 108.559 41.5C108.559 42.22 108.919 42.832 109.423 43.192C112.231 45.28 115.471 46.36 118.891 46.36Z" fill="#FF0000"/>
<g filter="url(#filter0)">
<path d="M20.24 43.768C20.24 45.028 21.212 46 22.472 46H31.904C37.52 46 41.228 43.588 41.228 39.088V39.016C41.228 35.596 39.176 33.904 36.224 32.896C38.096 31.924 39.824 30.304 39.824 27.28V27.208C39.824 25.516 39.248 24.148 38.132 23.032C36.692 21.592 34.424 20.8 31.544 20.8H22.472C21.212 20.8 20.24 21.772 20.24 23.032V43.768ZM24.596 31.42V24.724H30.968C33.812 24.724 35.396 25.948 35.396 27.928V28C35.396 30.304 33.488 31.42 30.644 31.42H24.596ZM24.596 42.076V35.164H31.616C35.108 35.164 36.8 36.424 36.8 38.548V38.62C36.8 40.888 34.964 42.076 31.94 42.076H24.596ZM46.6525 46H61.4845C62.5645 46 63.4645 45.136 63.4645 44.02C63.4645 42.94 62.5645 42.04 61.4845 42.04H48.8485V35.272H59.6845C60.7645 35.272 61.6645 34.408 61.6645 33.328C61.6645 32.212 60.7645 31.312 59.6845 31.312H48.8485V24.76H61.3045C62.3845 24.76 63.2845 23.896 63.2845 22.78C63.2845 21.7 62.3845 20.8 61.3045 20.8H46.6525C45.3925 20.8 44.4205 21.772 44.4205 23.032V43.768C44.4205 45.028 45.3925 46 46.6525 46ZM68.9697 46H83.8017C84.8817 46 85.7817 45.136 85.7817 44.02C85.7817 42.94 84.8817 42.04 83.8017 42.04H71.1657V35.272H82.0017C83.0817 35.272 83.9817 34.408 83.9817 33.328C83.9817 32.212 83.0817 31.312 82.0017 31.312H71.1657V24.76H83.6217C84.7017 24.76 85.6017 23.896 85.6017 22.78C85.6017 21.7 84.7017 20.8 83.6217 20.8H68.9697C67.7097 20.8 66.7377 21.772 66.7377 23.032V43.768C66.7377 45.028 67.7097 46 68.9697 46ZM95.2468 43.984C95.2468 45.208 96.2548 46.18 97.4788 46.18C98.7028 46.18 99.7108 45.208 99.7108 43.984V24.904H105.867C106.983 24.904 107.883 23.968 107.883 22.852C107.883 21.736 106.983 20.8 105.867 20.8H89.1268C87.9748 20.8 87.0748 21.736 87.0748 22.852C87.0748 23.968 87.9748 24.904 89.1268 24.904H95.2468V43.984ZM118.891 46.36C124.183 46.36 127.891 43.552 127.891 38.836V38.764C127.891 34.588 125.155 32.68 119.827 31.384C114.967 30.232 113.815 29.368 113.815 27.424V27.352C113.815 25.696 115.327 24.364 117.919 24.364C119.899 24.364 121.771 25.012 123.715 26.272C124.075 26.488 124.435 26.596 124.867 26.596C126.019 26.596 126.955 25.696 126.955 24.544C126.955 23.68 126.487 23.068 125.983 22.78C123.715 21.268 121.159 20.44 117.991 20.44C112.987 20.44 109.387 23.428 109.387 27.748V27.82C109.387 32.464 112.411 34.048 117.775 35.344C122.455 36.424 123.463 37.396 123.463 39.196V39.268C123.463 41.14 121.735 42.436 118.999 42.436C116.263 42.436 114.031 41.5 111.943 39.844C111.655 39.628 111.259 39.448 110.647 39.448C109.495 39.448 108.559 40.348 108.559 41.5C108.559 42.22 108.919 42.832 109.423 43.192C112.231 45.28 115.471 46.36 118.891 46.36Z" fill="#FF0000"/>
</g>
<defs>
<filter id="filter0" x="0.240234" y="0.439453" width="147.651" height="65.9199" filterUnits="userSpaceOnUse" color-interpolation-filters="sRGB">
<feFlood flood-opacity="0" result="BackgroundImageFix"/>
<feBlend mode="normal" in="SourceGraphic" in2="BackgroundImageFix" result="shape"/>
<feGaussianBlur stdDeviation="10" result="effect1_foregroundBlur_515:123"/>
</filter>
</defs>
</svg>

<svg width="148" height="67" fill="none" xmlns="http://www.w3.org/2000/svg"><path d="M20.24 48.768c0 1.26.972 2.232 2.232 2.232h9.432c5.616 0 9.324-2.412 9.324-6.912v-.072c0-3.42-2.052-5.112-5.004-6.12 1.872-.972 3.6-2.592 3.6-5.616v-.072c0-1.692-.576-3.06-1.692-4.176-1.44-1.44-3.708-2.232-6.588-2.232h-9.072c-1.26 0-2.232.972-2.232 2.232v20.736Zm4.356-12.348v-6.696h6.372c2.844 0 4.428 1.224 4.428 3.204V33c0 2.304-1.908 3.42-4.752 3.42h-6.048Zm0 10.656v-6.912h7.02c3.492 0 5.184 1.26 5.184 3.384v.072c0 2.268-1.836 3.456-4.86 3.456h-7.344ZM46.653 51h14.831c1.08 0 1.98-.864 1.98-1.98 0-1.08-.9-1.98-1.98-1.98H48.849v-6.768h10.837c1.08 0 1.98-.864 1.98-1.944 0-1.116-.9-2.016-1.98-2.016H48.847V29.76h12.456c1.08 0 1.98-.864 1.98-1.98 0-1.08-.9-1.98-1.98-1.98H46.653c-1.26 0-2.233.972-2.233 2.232v20.736c0 1.26.972 2.232 2.233 2.232Zm22.317 0h14.832c1.08 0 1.98-.864 1.98-1.98 0-1.08-.9-1.98-1.98-1.98H71.166v-6.768h10.836c1.08 0 1.98-.864 1.98-1.944 0-1.116-.9-2.016-1.98-2.016H71.166V29.76h12.456c1.08 0 1.98-.864 1.98-1.98 0-1.08-.9-1.98-1.98-1.98H68.97c-1.26 0-2.232.972-2.232 2.232v20.736c0 1.26.972 2.232 2.232 2.232Zm26.277-2.016c0 1.224 1.008 2.196 2.232 2.196 1.224 0 2.232-.972 2.232-2.196v-19.08h6.156c1.116 0 2.016-.936 2.016-2.052s-.9-2.052-2.016-2.052h-16.74a2.051 2.051 0 0 0-2.052 2.052c0 1.116.9 2.052 2.052 2.052h6.12v19.08Zm23.644 2.376c5.292 0 9-2.808 9-7.524v-.072c0-4.176-2.736-6.084-8.064-7.38-4.86-1.152-6.012-2.016-6.012-3.96v-.072c0-1.656 1.512-2.988 4.104-2.988 1.98 0 3.852.648 5.796 1.908.36.216.72.324 1.152.324 1.152 0 2.088-.9 2.088-2.052 0-.864-.468-1.476-.972-1.764-2.268-1.512-4.824-2.34-7.992-2.34-5.004 0-8.604 2.988-8.604 7.308v.072c0 4.644 3.024 6.228 8.388 7.524 4.68 1.08 5.688 2.052 5.688 3.852v.072c0 1.872-1.728 3.168-4.464 3.168-2.736 0-4.968-.936-7.056-2.592-.288-.216-.684-.396-1.296-.396-1.152 0-2.088.9-2.088 2.052 0 .72.36 1.332.864 1.692 2.808 2.088 6.048 3.168 9.468 3.168Z" fill="#000"/><path d="M20.24 43.768c0 1.26.972 2.232 2.232 2.232h9.432c5.616 0 9.324-2.412 9.324-6.912v-.072c0-3.42-2.052-5.112-5.004-6.12 1.872-.972 3.6-2.592 3.6-5.616v-.072c0-1.692-.576-3.06-1.692-4.176-1.44-1.44-3.708-2.232-6.588-2.232h-9.072c-1.26 0-2.232.972-2.232 2.232v20.736Zm4.356-12.348v-6.696h6.372c2.844 0 4.428 1.224 4.428 3.204V28c0 2.304-1.908 3.42-4.752 3.42h-6.048Zm0 10.656v-6.912h7.02c3.492 0 5.184 1.26 5.184 3.384v.072c0 2.268-1.836 3.456-4.86 3.456h-7.344ZM46.653 46h14.831c1.08 0 1.98-.864 1.98-1.98 0-1.08-.9-1.98-1.98-1.98H48.849v-6.768h10.837c1.08 0 1.98-.864 1.98-1.944 0-1.116-.9-2.016-1.98-2.016H48.847V24.76h12.456c1.08 0 1.98-.864 1.98-1.98 0-1.08-.9-1.98-1.98-1.98H46.653c-1.26 0-2.233.972-2.233 2.232v20.736c0 1.26.972 2.232 2.233 2.232Zm22.317 0h14.832c1.08 0 1.98-.864 1.98-1.98 0-1.08-.9-1.98-1.98-1.98H71.166v-6.768h10.836c1.08 0 1.98-.864 1.98-1.944 0-1.116-.9-2.016-1.98-2.016H71.166V24.76h12.456c1.08 0 1.98-.864 1.98-1.98 0-1.08-.9-1.98-1.98-1.98H68.97c-1.26 0-2.232.972-2.232 2.232v20.736c0 1.26.972 2.232 2.232 2.232Zm26.277-2.016c0 1.224 1.008 2.196 2.232 2.196 1.224 0 2.232-.972 2.232-2.196v-19.08h6.156c1.116 0 2.016-.936 2.016-2.052s-.9-2.052-2.016-2.052h-16.74a2.051 2.051 0 0 0-2.052 2.052c0 1.116.9 2.052 2.052 2.052h6.12v19.08Zm23.644 2.376c5.292 0 9-2.808 9-7.524v-.072c0-4.176-2.736-6.084-8.064-7.38-4.86-1.152-6.012-2.016-6.012-3.96v-.072c0-1.656 1.512-2.988 4.104-2.988 1.98 0 3.852.648 5.796 1.908.36.216.72.324 1.152.324 1.152 0 2.088-.9 2.088-2.052 0-.864-.468-1.476-.972-1.764-2.268-1.512-4.824-2.34-7.992-2.34-5.004 0-8.604 2.988-8.604 7.308v.072c0 4.644 3.024 6.228 8.388 7.524 4.68 1.08 5.688 2.052 5.688 3.852v.072c0 1.872-1.728 3.168-4.464 3.168-2.736 0-4.968-.936-7.056-2.592-.288-.216-.684-.396-1.296-.396-1.152 0-2.088.9-2.088 2.052 0 .72.36 1.332.864 1.692 2.808 2.088 6.048 3.168 9.468 3.168Z" fill="red"/><g filter="url(#a)"><path d="M20.24 43.768c0 1.26.972 2.232 2.232 2.232h9.432c5.616 0 9.324-2.412 9.324-6.912v-.072c0-3.42-2.052-5.112-5.004-6.12 1.872-.972 3.6-2.592 3.6-5.616v-.072c0-1.692-.576-3.06-1.692-4.176-1.44-1.44-3.708-2.232-6.588-2.232h-9.072c-1.26 0-2.232.972-2.232 2.232v20.736Zm4.356-12.348v-6.696h6.372c2.844 0 4.428 1.224 4.428 3.204V28c0 2.304-1.908 3.42-4.752 3.42h-6.048Zm0 10.656v-6.912h7.02c3.492 0 5.184 1.26 5.184 3.384v.072c0 2.268-1.836 3.456-4.86 3.456h-7.344ZM46.653 46h14.831c1.08 0 1.98-.864 1.98-1.98 0-1.08-.9-1.98-1.98-1.98H48.849v-6.768h10.837c1.08 0 1.98-.864 1.98-1.944 0-1.116-.9-2.016-1.98-2.016H48.847V24.76h12.456c1.08 0 1.98-.864 1.98-1.98 0-1.08-.9-1.98-1.98-1.98H46.653c-1.26 0-2.233.972-2.233 2.232v20.736c0 1.26.972 2.232 2.233 2.232Zm22.317 0h14.832c1.08 0 1.98-.864 1.98-1.98 0-1.08-.9-1.98-1.98-1.98H71.166v-6.768h10.836c1.08 0 1.98-.864 1.98-1.944 0-1.116-.9-2.016-1.98-2.016H71.166V24.76h12.456c1.08 0 1.98-.864 1.98-1.98 0-1.08-.9-1.98-1.98-1.98H68.97c-1.26 0-2.232.972-2.232 2.232v20.736c0 1.26.972 2.232 2.232 2.232Zm26.277-2.016c0 1.224 1.008 2.196 2.232 2.196 1.224 0 2.232-.972 2.232-2.196v-19.08h6.156c1.116 0 2.016-.936 2.016-2.052s-.9-2.052-2.016-2.052h-16.74a2.051 2.051 0 0 0-2.052 2.052c0 1.116.9 2.052 2.052 2.052h6.12v19.08Zm23.644 2.376c5.292 0 9-2.808 9-7.524v-.072c0-4.176-2.736-6.084-8.064-7.38-4.86-1.152-6.012-2.016-6.012-3.96v-.072c0-1.656 1.512-2.988 4.104-2.988 1.98 0 3.852.648 5.796 1.908.36.216.72.324 1.152.324 1.152 0 2.088-.9 2.088-2.052 0-.864-.468-1.476-.972-1.764-2.268-1.512-4.824-2.34-7.992-2.34-5.004 0-8.604 2.988-8.604 7.308v.072c0 4.644 3.024 6.228 8.388 7.524 4.68 1.08 5.688 2.052 5.688 3.852v.072c0 1.872-1.728 3.168-4.464 3.168-2.736 0-4.968-.936-7.056-2.592-.288-.216-.684-.396-1.296-.396-1.152 0-2.088.9-2.088 2.052 0 .72.36 1.332.864 1.692 2.808 2.088 6.048 3.168 9.468 3.168Z" fill="red"/></g><defs><filter id="a" x=".24" y=".439" width="147.651" height="65.92" filterUnits="userSpaceOnUse" color-interpolation-filters="sRGB"><feFlood flood-opacity="0" result="BackgroundImageFix"/><feBlend in="SourceGraphic" in2="BackgroundImageFix" result="shape"/><feGaussianBlur stdDeviation="10" result="effect1_foregroundBlur_515:123"/></filter></defs></svg>
